X:21
T: Elmegyek elmegyek
O: Szentgyörgyvölgye
Q: "Tempo guisto" 1/4=100
M:2/4
L:1/4
K:C
A A/B/ | c/B/ A | 
G G/E/ | A A | E z | 
D D/G/ | A/G/E | 
C B,/A,/ | D D | A, z | 

